X: 311
T: Delven House
R: reel
M: C
L: 1/8
Z: 2012 John Chambers <jc:trillian.mit.edu>
B: J. Anderson "Budget of Strathspeys, Reels and Country Dances" (Early 1800s) p.31 #1
F: http://imslp.org/wiki/Anderson%27s_Budget_of_Strathspeys,_Reels_and_Country_Dances_(Various)
K: D
f |\
d2(Af) d2(AF) | Eeed cABc | (df).e.f (df).B.d | ABAF (Ad)d :|
(f/g/) |\
(af).d.f (df).a.f | (bge)g (egb).g | afdf dfaf | Bgfe fdd ||
(f/g/) |\
afdf (d/e/f/g/) (af) | bgeg (eg/a/b).g | faef deBd | ABAF (Ad)d |]

%%sep 2 1 500
%%sep 1 1 500

